X:142
T:Miss Monaghan's
M:4/4
L:1/8
R:Reel
K:D
|: "D"D2ED FAAd | "G"B2BA FABc | "D"d3B ABde | "G"f2fg "A"fedA |
"D"D2ED FAAd | "G"B2BA FABc | "D"d3B "G"ABdB |
1 "A"AFEG "D"FDED :|2 "A"AFEG "D"FDD2||
|: "D (Bmi)"fa2g afdf | "G"gefd edBc | "D"d2dB "(Bmi)"ABde | "G"f2fg "A"
fede |
"D"faab afdf | "G"gefd edBc | "G"d2dB "D"ABdB |
1 "A"AFEG "D"FDD2 :|2 "A"AFEG "Asus4"FDED||
